X: 1642
T: Sabâ Sazsemâîsi
C: Neyzen Aziz Dede
O: Turkey
F: http://compmusic.upf.edu/node/140
N: saba--sazsemaisi--aksaksemai----neyzen_aziz_dede
N: makam= saba
N: form= sazsemaisi
N: usul= aksaksemai = 10/8
M: 10/8
L: 1/16
K: C _2/4B _3/4d  
Q: 1/4=120
%%MIDI tuningsystem comma53
c4 _2/4d2dc2BBA/B/ cB/A/A4z2  | c4 G2AG ABcd c/B/A/B/c4z2  | 
w:  1. HANE  |   | 
c_2/4dc2 d2e4f2 edc4Bc  | A4 g2fe dccB BAA4z2  | 
w:   |   | 
A4 e2f3/2e/ fg_7/8a3/2g/ fef4z2  | \
w:  TESLİM  | 
efef g2_7/8a2 g2f2 e2d2 c2Bc  | 
w:   | 
A4 G2AB GABc ABcd BcAB  | G4 eddc2dcB BAA4z2  | 
w:   |   | 
=d2e2 e2ed ^cdcd e^3/4fd4z2  | c'2_1/4b2 a2g3^3/4ff3/2g/ fee4z2  | 
w:  2. HANE  |   | 
e4 a2a=b a^gga gfe2 =d2e2  | c4 d2c3BBA BGA4z2  | 
w:   |   | 
A4 e2f3/2e/ fg_7/8a3/2g/ fef4z2  | \
w:  TESLİM  | 
efef g2_7/8a2 g2f2 e2d2 c2Bc  | 
w:   | 
A4 G2AB GABc ABcd BcAB  | G4 eddc2dcB BAA4z2  | 
w:   |   | 
A4 a=b^ga fge=d ^cde2 ^3/4f2=g2  | \
w:  3. HANE  | 
a2=b2 agga2gg^2/4f fee4z2  | 
w:   | 
e4 ^3/4f2g2 a2g2 =f2e2 d2e2  | c4 Bcd2 cBBA BGA4z2  | 
w:   |   | 
A4 e2f3/2e/ fg_7/8a3/2g/ fef4z2  | \
w:  TESLİM  | 
efef g2_7/8a2 g2f2 e2d2 c2Bc  | 
w:   | 
A4 G2AB GABc ABcd BcAB  | G4 eddc2dcB BAA4z2  | 
w:   |   | 
z24  | A2B2A2G2ABAGA2B2c2d2c2B2  | {G}B2AGA2B2c2d2cBABc4z4  | 
w:  |  4. HANE  |   | 
c2d2c2B2c2ded2c2c3BA4  | B2c2d2B2c2A2B2G2A4z4  | 
w:   |   | 
A2B2A2G2ABAGA2B2c2d2c2B2  | {G}B2AGA2B2c2d2cBABc4z4  | 
w:   |   | 
c2d2c2B2c2ded2c2c3BA4  | B2c2d2B2c2A2B2G2A4z4  | 
w:   |   | 
A4g2_7/8a2g2f2gfefg4z4  | c2_7/8a2g2f2e3ddedcc4z4  | 
w:   |   | 
c2d2c2B2c2ded2c2c3BA4  | B2c2d2B2c2A2B2G2A4z4  | 
w:   |   | 
A4g2_7/8a2g2f2gfefg4z4  | c2_7/8a2g2f2e3ddedcc4z4  | 
w:   |   | 
c2d2c2B2c2ded2c2c3BA4  | B2c2d2B2c2A2B2G2A4z4  | 
w:   |   | 
z20  | A4 e2f3/2e/ fg_7/8a3/2g/ fef4z2  | \
w:  |  TESLİM  | 
efef g2_7/8a2 g2f2 e2d2 c2Bc  | 
w:   | 
A4 G2AB GABc ABcd BcAB  | G4 eddc2dcB BAA4z2  | 
w:   |   | 
|


